X: 1
T:Daniel Cooper. WCl.24
M:2/4
L:1/8
Q:350
S:William Clarke MS,Lincoln,1770.
R:reel
O:Lincoln
A:England
Z:vmp.Barry Callaghan
K:G
d2 ((3efg)|fedf|ecBc|d2d2::
BGGB|cAAc|!
BGGB|d2d2|BGGB|cAAc|BGAF|G2 G2:||
